X:133
T:Flushing Quickstep (No.17). JGi.133
M:2/4
L:1/8
Q:1/4=100
S:Joshua Gibbons MS,1823,Tealby,Lincs.
R:quick step
C:No 17
O:Tealby,Lincolnshire
Z:VMP/R.Greig, 2009
K:C
cc/d/ cG|ed cB|cc/d/ ce|dgg2|cc/d/ cG|dd/e/ df|egcB|c2c2:|
|:d>c de|fedc|ag ab|c’gec|d>e fa|ge dc|Gc de|c2c2:|

